packages/icons/src/assets/voice.svg

<svg width="16" height="16" viewBox="0 0 16 16" fill="none" xmlns="http://www.w3.org/2000/svg">
<path d="M7.03223 16H5.78223V0H7.03223V16ZM10.2178 13.5381L8.96777 13.5391V2.46191L10.2178 2.46094V13.5381ZM3.8457 11.0771H2.5957V4.92285H3.8457V11.0771ZM13.4043 11.0771H12.1543V4.92285H13.4043V11.0771Z" fill="#0A0A0A"/>
</svg>

<svg xmlns="http://www.w3.org/2000/svg" width="16" height="16" viewBox="0 0 16 16"><path d="M7.032 16h-1.25V0h1.25zm3.186-2.462-1.25.001V2.462l1.25-.001zm-6.372-2.46h-1.25V4.922h1.25zm9.558 0h-1.25V4.922h1.25z"/></svg>
